icons/calendar.svg

<svg width="24" height="24" viewBox="0 0 24 24" xmlns="http://www.w3.org/2000/svg">
    <path fill-rule="evenodd"
        d="M7.23529 2C4.39854 2 2 4.18549 2 7V10H22V7C22 4.18549 19.6015 2 16.7647 2H7.23529ZM2 16V12H7V16H2ZM9 16V12H15V16H9ZM15 18H9V22H15V18ZM17 21.995C19.3896 21.8928 21.4232 20.2424 21.8963 18H17V21.995ZM17 16V12H22V16H17ZM2.10371 18H7V21.995C4.61038 21.8928 2.57681 20.2424 2.10371 18ZM9 7H15V5H9V7Z" />
    <path fill-rule="evenodd"
        d="M7.23529 2C4.39854 2 2 4.18549 2 7V10H22V7C22 4.18549 19.6015 2 16.7647 2H7.23529ZM22 12H17V16H22V12ZM21.8963 18H17V21.995C19.3896 21.8928 21.4232 20.2424 21.8963 18ZM15 22V18H9V22H15ZM7 21.995V18H2.10371C2.57681 20.2424 4.61038 21.8928 7 21.995ZM2 16H7V12H2V16ZM9 7H15V5H9V7ZM9 12H15V16H9V12Z" />
</svg>

<svg xmlns="http://www.w3.org/2000/svg" width="24" height="24" viewBox="0 0 24 24">
    <path
        d="M7.235 2C4.4 2 2 4.185 2 7v3h20V7c0-2.815-2.398-5-5.235-5h-9.53zM2 16v-4h5v4H2zm7 0v-4h6v4H9zm6 2H9v4h6v-4zm2 3.995c2.39-.102 4.423-1.753 4.896-3.995H17v3.995zM17 16v-4h5v4h-5zM2.104 18H7v3.995C4.61 21.893 2.577 20.242 2.104 18zM9 7h6V5H9v2z" />
    <path
        d="M7.235 2C4.4 2 2 4.185 2 7v3h20V7c0-2.815-2.398-5-5.235-5h-9.53zM22 12h-5v4h5v-4zm-.104 6H17v3.995c2.39-.102 4.423-1.753 4.896-3.995zM15 22v-4H9v4h6zm-8-.005V18H2.104C2.577 20.242 4.61 21.893 7 21.995zM2 16h5v-4H2v4zm7-9h6V5H9v2zm0 5h6v4H9v-4z" />
</svg>
